X:20
T: Maid Behind the Bar
M: 4/4
L: 1/8
R: Reel
K: D
A|FAAB AFED|FAAB A2de|fBBA Bcde|fdef edBA|
FAAB AFED|FAAB A2de|fBBA BcdB|AFEF D3 :|
g|faag fdde|(3fed ad fddf|gfga beef|(3gfe be geea|
fgaf bfaf|defd e2 de|fBBA BcdB|AFEF D3 :|
